!!!OTL: The Green Mossy Banks of the Sea
!!!ONM: 77.
**kern
*clefG2
!Modal -- Conklin/Pearce 
*k[b-e-a-]
*f:
*M3/4
*MM110
{4c
=1
4f
4cc
4b-
=2
4g
4b-
4d
=3
4e-
[2f
=4
2f]}
{8f
8g
=5
4a-
4g
4f
=6
4c
4f
4e-
=7
[2.f
=8
2f]}
{8c
8c
=9
4f
4cc
4b-
=10
4g
4b-
4d
=11
4e-
[2f
=12
2f]}
{8f
8g
=13
4a-
4g
4f
=14
4c
4f
4e-
=15
[2.f
=16
2f]}
{8b-
8b-
=17
4cc
4ee-
4cc
=18
4ff
4ee-
4dd
=19
4cc
[2b-
=20
2b-]}
{4b-
=21
4cc
4ee-
4cc
=22
4ff
4ee-
4dd
=23
[2.cc
=24
2cc]}
{8cc
8b-
=25
4g
4cc
4b-
=26
4g
4b-
4d
=27
4e-
[2f
=28
2f]}
{8f
8g
=29
4a-
4g
4f
=30
4c
4f
4e-
=31
[2.f
=32
2f]}
==
*-
!!!CNT: Folksongs of Maritime Canada
!!!MRD: 1928///-1932///
!!!OCL: Helen Creighton
!!!YOR: Songs and Ballads from Nova Scotia
!!!PPR: J.M. Dent & Sons, Limited
!!!PPP: Toronto, Canada
!!!PDT: 1932///
!!!reprint: Dover Publications, 1992: ISBN 0-486-21703-5
!!!ENC1: Craig Stuart Sapp (music and bibliographic data)                       
!!!ENC2: Marcus Pearce (phrase markings and key designations)                   
!!!ENC3: Darrell Conklin (phrase markings and key designations)   
!!!END: 2002/04/10/
!!!EEV: 2004/06/05
!!!MPN: Mr. Faulkner and Mr. Patrick Williams
!!!PPG: 167
!!!EFL: 78/152
!!!ARE: Canada; Nova Scotia
!!!verses: 6
!!!VTS: 3969820250
